X:38
T:Halling
R:Halling
C:e. Anders Rosen
O:Sweden
O:Norway
M:2/4
K:DDor
A,D|\
D2A,D D2A,D|D2^CD E4|EDED EDEF|EFE^C D2:|
|:A,2|\
D2^CD E2DE|F2EF G2FG|A3G EFE^C \
|1 D2A,D D2:|2 D4D4 ||
|:d2c2 A3G|FD3 {D}E2E^C|DA,3 {A,}D2A,2|\
d2c2 A3G|FD3 {D}E2E^C|D4 D2:|
|:A,2|\
DA,3 {A}D2DD|E^C3 {C}D2DE|FD3 {D}E2E^C\
|1E^C3 {C}D2 :|2 D4D2||
